findly-builder/apps/searchassist/src/assets/icons/Unlink.svg

<svg width="16" height="16" viewBox="0 0 16 16" fill="none" xmlns="http://www.w3.org/2000/svg">
<path d="M4.8 0C4.52386 0 4.3 0.223858 4.3 0.5V2.7C4.3 2.97614 4.52386 3.2 4.8 3.2C5.07614 3.2 5.3 2.97614 5.3 2.7V0.5C5.3 0.223858 5.07614 0 4.8 0Z" fill="#DD3646"/>
<path d="M3.2 4.8C3.2 4.52386 2.97614 4.3 2.7 4.3H0.5C0.223858 4.3 0 4.52386 0 4.8C0 5.07614 0.223858 5.3 0.5 5.3H2.7C2.97614 5.3 3.2 5.07614 3.2 4.8Z" fill="#DD3646"/>
<path d="M12.8 11.2C12.8 11.4761 13.0239 11.7 13.3 11.7H15.5C15.7761 11.7 16 11.4761 16 11.2C16 10.9239 15.7761 10.7 15.5 10.7H13.3C13.0239 10.7 12.8 10.9239 12.8 11.2Z" fill="#DD3646"/>
<path d="M11.2 12.8C10.9239 12.8 10.7 13.0239 10.7 13.3V15.5C10.7 15.7761 10.9239 16 11.2 16C11.4761 16 11.7 15.7761 11.7 15.5V13.3C11.7 13.0239 11.4761 12.8 11.2 12.8Z" fill="#DD3646"/>
<path d="M8.455 2.92017C9.74121 1.67791 11.7857 1.69567 13.0501 2.9601C14.2916 4.20153 14.3313 6.19492 13.1506 7.49041L13.0837 7.56165L11.4286 9.2168C10.7562 9.88944 9.82478 10.2369 8.87612 10.1689C7.92746 10.101 7.05508 9.62438 6.4854 8.86278C6.31362 8.63312 6.36053 8.3077 6.59019 8.13591C6.81984 7.96413 7.14527 8.01105 7.31705 8.2407C7.70624 8.761 8.30222 9.08661 8.95031 9.13303C9.56755 9.17723 10.1741 8.96404 10.6273 8.54663L10.6941 8.48249L12.343 6.83371C13.1917 5.95502 13.1796 4.55829 12.3157 3.69447C11.472 2.85075 10.1199 2.81955 9.24364 3.60448L9.18187 3.66194L8.23288 4.60541C8.0295 4.80761 7.70071 4.80665 7.49851 4.60327C7.3082 4.41185 7.29786 4.10934 7.46686 3.90584L7.50065 3.86889L8.455 2.92017Z" fill="#DD3646"/>
<path d="M4.58082 6.7832C5.25322 6.11056 6.18462 5.76312 7.13328 5.83106C8.08194 5.899 8.95432 6.37562 9.524 7.13722C9.69578 7.36688 9.64887 7.6923 9.41921 7.86409C9.18956 8.03587 8.86413 7.98895 8.69235 7.7593C8.30316 7.239 7.70718 6.91339 7.05909 6.86697C6.44185 6.82277 5.83532 7.03595 5.38208 7.45337L5.31526 7.51751L3.66638 9.16629C2.8177 10.045 2.82984 11.4417 3.69366 12.3055C4.53738 13.1493 5.88952 13.1805 6.76477 12.3965L6.82646 12.3391L7.76993 11.3957C7.97272 11.1929 8.30151 11.1929 8.50431 11.3957C8.69517 11.5865 8.7064 11.889 8.53799 12.093L8.50431 12.13L7.5544 13.0798C6.26819 14.3221 4.2237 14.3043 2.95928 13.0399C1.71784 11.7985 1.67815 9.80508 2.85883 8.50959L2.92567 8.43835L4.58082 6.7832Z" fill="#DD3646"/>
</svg>

<svg width="16" height="16" fill="none" xmlns="http://www.w3.org/2000/svg"><path d="M4.8 0a.5.5 0 0 0-.5.5v2.2a.5.5 0 0 0 1 0V.5a.5.5 0 0 0-.5-.5ZM3.2 4.8a.5.5 0 0 0-.5-.5H.5a.5.5 0 0 0 0 1h2.2a.5.5 0 0 0 .5-.5Zm9.6 6.4a.5.5 0 0 0 .5.5h2.2a.5.5 0 0 0 0-1h-2.2a.5.5 0 0 0-.5.5Zm-1.6 1.6a.5.5 0 0 0-.5.5v2.2a.5.5 0 0 0 1 0v-2.2a.5.5 0 0 0-.5-.5ZM8.455 2.92a3.278 3.278 0 0 1 4.696 4.57l-.067.072-1.655 1.655a3.278 3.278 0 0 1-4.944-.354.52.52 0 0 1 .832-.622 2.24 2.24 0 0 0 3.31.306l.067-.065 1.649-1.648a2.24 2.24 0 0 0-3.1-3.23l-.061.058-.95.943a.52.52 0 0 1-.765-.7L7.5 3.87l.954-.949Z" fill="#DD3646"/><path d="M4.58 6.783a3.278 3.278 0 0 1 4.944.354.52.52 0 0 1-.832.622 2.24 2.24 0 0 0-3.31-.306l-.067.065-1.649 1.648a2.24 2.24 0 0 0 3.099 3.23l.061-.057.944-.943a.52.52 0 0 1 .768.697l-.034.037-.95.95A3.278 3.278 0 0 1 2.86 8.51l.067-.072L4.58 6.783Z" fill="#DD3646"/></svg>
